X: 33862
T: Reculver, The
R: polka
M: 2/4
K: Bminor
|:fa/f/ ec|BA B2|fa/f/ ec|e/f/a ba|
fa/f/ ec|BA B2|fa/f/ ec|1 B2 B2:|2 B2 BB/c/||
|:dB bB/c/|dB bB/c/|dB af|ec AB/c/|
dB bB/c/|dB bB/c/|df ec|1 B2 BB/c/:|2 B2 B2||

